X:1
T:Ave Maria Music by Franz Schubert
C:Schubert
%%score { 1 | ( 2 3 ) }
L:1/8
Q:1/4=100
M:4/4
I:linebreak $
K:Gmin
V:1 treble 
V:2 bass 
V:3 bass 
L:1/4
V:1
"^Moderato slow"[I:staff +1] z !3!D,!1!F,D, z D,F,D, | z D,F,D, z D,F,D, |[I:staff -1] (!2!B6 AB |$ %3
"Bb" (d6 d)c |"Gm" B6) z2 |"Cm" (!4!c3 d/c/"F7" BAGA |$"Bb" B4) z2 !5!d2 | %7
"Bm7b5" d3 (c/B/)"Gm" (AG!4!d=e) |"A743" (d4"A7" ^c2) z A |$"F#dim" =c3 B (3(Acd (3ecA) | %10
"Gm" B6 (!5!dc) |"F" c3 A"G7" (3(G!2!=Bd (3fdB) x4 | %12
V:2
 !5!B,,4 B,,4 | B,,4 B,,4 | z D,F,D, z !2!=E,!1!G,E, |$ z D,F,D, z _E,F,E, | z D,G,D, z D,G,D, | %5
 !3!E,!5!C, !1!G,2 [F,,E,]4 |$ z !3!D,!1!F,D, z D,F,D, | z D,^F,D, z D,G,D, | z =E,G,E, z E,G,E, |$ %9
 ^F,,C, E,4 C,2 | z D,G,D, z =E,G,E, | z F,A,F, x8 | %12
V:3
 x4 | x4 | B,,2 G,,2 |$ F,,2 F,,2 | G,,2 G,,2 | x4 |$ !5!B,,2 B,,2 | B,,2 B,,2 | A,,2 A,,2 |$ x4 | %10
 G,,2 G,,2 | A,,2 [D,F,=B,]2 x2 | %12

